X:1
T:MEPHISTO RAG.
T:MEPHISTO RAG.
T:A. J. STASTNY.
T:Copyright, 1908, by A. J. Stastny Music Co.
T:Copyright, 1908, by A. J. Stastny Music Co.
T:Copyright, 1908, by A. J. Stastny Music Co.
C:A. J. STASTNY.
Z:Copyright, 1908, by A. J. Stastny Music Co.
%%score { ( 1 4 ) | ( 2 3 ) }
L:1/8
Q:1/4=90
M:2/4
K:F
V:1 treble nm="Piano" snm="Pno."
V:4 treble 
V:2 bass 
V:3 bass 
V:1
"^Moderato."!mf! ^g/[fa]/g/ | [fa]/^g/[fa]/[e=g]/- [eg]/[^d^f]/[eg]/[df]/ | %2
 [=d=f]/[^ce]/[df]/[^Gd]/- [Gd]/f/e/d/ | [Ac] z/ C/z/D/z/E/ | z !>![EBc]!>![FAf]/ | ^g/[fa]/g/ |: %6
!mf!!f!"_-" [fa]/^g/[fa]/[e=g]/- [eg]/[^d^f]/[eg]/[df]/ | %7
 [=d=f]/[^ce]/[df]/[=ce]/- [ce]/^d/[ce]/_e/ | [B=d]/^c/[Bd]/[DA=c]/- [DAc]/=B/[D^Fc] | %9
 [DG_B]2- [DGB]/A/G/=F/ | E[Bd][Bd][Bd] | [EBd]/!>![df][ce]/ [Bd]2 | z [FAd][FAd][FAd] | %13
 [FAd]/!>![FAf][FAe]/ [FAd]/^g/[fa]/g/ | [fa]/^g/[fa]/[e=g]/- [eg]/[^d^f]/[eg]/[df]/ | %15
 [=d=f]/[^ce]/[df]/[=ce]/- [ce]/^d/[ce]/_e/ | [B=d]/^c/[Bd]/[DA=c]/- [DAc]/=B/[D^Fc] | %17
 [DG_B]2- [DGB]/A/G/=F/ | D/F/A/!>![^CG]/- [CG]/A/G/E/ | [=CF]/A/e/!>![D^Fd]/- [DFd]/c/A/=F/ | %20
 [=B,D]/^C/D/^D/ E<A |1 [A,F]2 z/ ^g/[fa]/g/ :|2 [A,F]3!f! z || z4 | z4 | %25
 z/ [Gdfg][Adfa]/- [Adfa]/[Gdfg]/[Fdf]/[F=Bd]/- | [FBd]!>![A=Be]!>![Gce]!>![FGd] | [EGc]4 | %28
 z2 z (3F/G/^G/ | A/>c/B/>A/ =G/>F/D/>F/ | (3E/G/E/ C/>^C/ [B,D]/>^D/ E/<C/ | z4 | z4 | %33
 z/ [Gdfg][Adfa]/- [Adfa]/[Gdfg]/[Fdf]/[F=Bd]/- | [FBd]!>![A=Be]!>![Gce]!>![FGd] | [EGc]4 | %36
 z2 z (3F/G/^G/ | A/>c/B/>A/ G/>F/D/>E/ | F/dc/ !>![FAf] ||[K:Bb] (3z/ ^F/G/ | %40
 z (3z/ ^F/G/ z (3z/ F/G/ | z (3z/ ^F/G/ z (3z/ F/G/ | z (3z/ ^F/G/ z (3z/ F/G/ | %43
 z2 z/ [G=Bg]/[GBf]/[FBd]/ | [=E_Bd]/^c/[DFd]/[EG=c]/- [EGc]/d/[EGc]/B/ | %45
 [FA]/c/[GBg]/[FAf]/- [FAf]/_e/G/A/ | B/c/d/B/ [A=ea]/[Geg][FBf]/- | [FBf]/d/c/B/ F (3z/ ^F/G/ | %48
 z (3z/ ^F/G/ z (3z/ F/G/ | z (3z/ ^F/G/ z (3z/ F/G/ | z (3z/ ^F/G/ z (3z/ F/G/ | %51
 z2 z/ [G=Bg]/[GBf]/[FBd]/ | [Gcf]/=e/[Gcf]/[_G_B_e]/- [GBe]/B/c/^c/ | %53
 [FB_e]/d/[_GB^c]/[FBd]/- [FBd]/F/B/=c/ | [FBd]/^c/[FBd]/c/ [=EBd]<[_EF=c] | %55
 B/g[Ff]/ [Bdb] (3a/g/f/ || !>!d/f/g/[cf]/- [cf]/g/!>![_cf] | !>![Be]b/[Bd]/- [Bd] (3d/=c/B/ | %58
 !>!G/B/d/[_Gc]/- [Gc]/d/!>![Gc] | !>![FB]f/[=EB]/- [EB]/>c/B/>=G/ | A[A_ea][Aea][Aea] | %61
 a/g/f/g/- [Aeg]<[Aea] | [Bdb]/>[cc']/[dd']/>[cc']/ [Bb]/[Gg][Bb]/ | [Ff]2- [Ff] (3a/g/f/ | %64
 !>!d/f/g/[cf]/- [cf]/g/!>![_cf] | !>![Be]b/[Bd]/- [Bd] (3d/=c/B/ | %66
 !>!G/B/d/[_Gc]/- [Gc]/d/!>![Gc] | !>![FB]f/[=EB]/- [EB]/>c/B/>=G/ | A[A_eg][Aeg][Aeg] | %69
 g/f/e/g/- g/ab/- | [Bdb] z/ F/z/G/z/A/ | z !>![FAef]!>![Bdb] z |] %72
V:2
 z/ z | !>![F,C]F !>![E,^C]A, | !>![D,A,]D ((!>![=B,,=B,]2 | [C,C])) x/ C,/ x/ D,/ x/ E,/ | %4
 [F,,F,] !>![=C,,=C,]!>![F,,,F,,]/ | z/ z |: !>![F,C]F !>![E,^C]A, | !>![D,A,]D !>![A,C]E | %8
 [B,,B,][G,,G,] [^F,,^F,][D,,D,] | [G,,G,][=F,,=F,][E,,E,][D,,D,] | [C,,C,][E,B,C] [G,,G,][E,B,C] | %11
 C,[E,B,C] z/ [C,,C,]/[D,,D,]/[E,,E,]/ | [F,,F,][F,A,C] [C,,C,][F,A,C] | %13
 [F,,F,][F,A,C]- [F,A,C]/ z/ z | !>![F,C]F !>![E,^C]A, | !>![D,A,]D !>![A,C]E | %16
 [B,,B,][G,,G,] [^F,,^F,][D,,D,] | [G,,G,][A,,A,][B,,B,] z | [B,,B,][B,,B,]- [B,,B,] z | %19
 [A,,A,][D,,D,]- [D,,D,] z | G,,[F,G,=B,] C,C,, |1 [F,,F,]C,F,, z :|2 %22
 [F,,F,][C,,C,][D,,D,][E,,E,] || [F,,F,]/!>![C,C][A,,A,]/- [A,,A,]/[G,,G,]/[F,,F,]/[E,,E,]/ | %24
 [D,,D,]/!>![A,,A,][F,,F,]/- [F,,F,]/[E,,E,]/[D,,D,]/[C,,C,]/ | [=B,,,=B,,][F,G,D] G,,[F,G,=B,] | %26
 G,,!>![G,,,G,,]!>![A,,,A,,]!>![=B,,,=B,,] | !>![C,,C,]!>![E,,E,]!>![G,,G,]!>![A,,A,] | %28
 [B,,B,]/!>![E,E][D,D]/- [D,D]/[C,C]/[B,,B,]/[G,,G,]/ | [F,,F,][F,A,C] [D,,D,][F,G,=B,] | %30
 [G,,G,][C,E,_B,] [C,,C,][G,B,] | [F,,F,]/!>![C,C][A,,A,]/- [A,,A,]/[G,,G,]/[F,,F,]/[E,,E,]/ | %32
 [D,,D,]/!>![A,,A,][F,,F,]/- [F,,F,]/[E,,E,]/[D,,D,]/[C,,C,]/ | [=B,,,=B,,][F,G,D] G,,[F,G,=B,] | %34
 G,,!>![G,,,G,,]!>![A,,,A,,]!>![=B,,,=B,,] | !>![C,,C,]!>![E,,E,]!>![G,,G,]!>![A,,A,] | %36
 [B,,B,]/!>![E,E][D,D]/- [D,D]/[C,C]/[B,,B,]/[G,,G,]/ | [F,,F,][F,A,C] [G,,G,][C,,C,] | %38
 [F,,F,]!>!C, !>!F,, ||[K:Bb] (3x/ ^F,/G,/ | x (3x/ ^F,/G,/ x (3z/ ^F,/G,/ | %41
 x (3x/ ^F,/G,/ x (3x/ ^F,/G,/ | x (3x/ ^F,/G,/ x (3x/ ^F,/G,/ | !>![D,D]!>![=C,=C]!>![=B,,=B,] z | %44
 [G,,G,][=E,B,C] !>![C,B,C]2 | [F,,F,][F,A,C] !>![_E,A,C]2 | [D,,D,][F,B,] [^C,,^C,][G,B,^C] | %47
 [D,B,D] z z (3x/ ^F,/G,/ | x (3x/ ^F,/G,/ x (3z/ ^F,/G,/ | x (3x/ ^F,/G,/ x (3x/ ^F,/G,/ | %50
 x (3x/ ^F,/G,/ x (3x/ ^F,/G,/ | !>![D,D]!>![=C,=C]!>![=B,,=B,] z | [C,,C,][G,C][_G,C][_G,,G,] | %53
 [F,,F,][=E,B,][F,B,][B,,,B,,] | [F,,F,][F,B,] [G,,G,][A,,A,] | [B,,B,][F,,F,] [B,,,B,,] z || %56
[K:treble] !>!B>A- A!>!_A | !>!G_G/F/- F z |[K:bass] !>!=E>_E- E!>!E | !>!D>_D- D z | %60
 C,[F,A,E] F,,[F,A,E] | C,[F,A,E] F,,[F,A,E] | B,,[F,B,D] B,,[=E,B,^C] | %63
 [B,,B,]/[A,,A,][G,,G,]/ [F,,F,] z |[K:treble] !>!B>A- A!>!_A | !>!G_G/F/- F z | %66
[K:bass] !>!=E>_E- E!>!E | !>!D>_D- D z | C,[F,A,E] F,,[F,A,E] | C,[F,A,E] F,,[F,A,E] | %70
 [B,,B,] x/ F,/ x/ G,/ x/ A,/ | [B,,B,] !>![=F,,=F,]!>![B,,,B,,] z |] %72
V:3
 x3/2 | x4 | x4 | x [=B,,,=B,,]/z/[^C,,^C,]/z/[^D,,^B,,]/ z/ | x5/2 | x3/2 |: x4 | x4 | x4 | x4 | %10
 x4 | x4 | x4 | x4 | x4 | x4 | x4 | x4 | x4 | x4 | x4 |1 x4 :|2 x4 || x4 | x4 | x4 | x4 | x4 | x4 | %29
 x4 | x4 | x4 | x4 | x4 | x4 | x4 | x4 | x4 | x3 ||[K:Bb] [F,,F,] | %40
 !>![_A,,_A,][F,,F,] [=A,,=A,]!>![F,,=F,] | !>![B,,B,][F,,F,] !>![=B,,=B,][F,,=F,] | %42
 !>![C,C][F,,F,] !>![^C,^C][F,,=F,] | x4 | x4 | x4 | x4 | x3 [F,,F,] | %48
 !>![_A,,_A,][F,,F,] [=A,,=A,]!>![F,,=F,] | !>![B,,B,][F,,F,] !>![=B,,=B,][F,,=F,] | %50
 !>![C,C][F,,F,] !>![^C,^C][F,,=F,] | x4 | x4 | x4 | x4 | x4 ||[K:treble] x4 | x4 |[K:bass] x4 | %59
 x4 | x4 | x4 | x4 | x4 |[K:treble] x4 | x4 |[K:bass] x4 | x4 | x4 | x4 | %70
 x [=E,,=E,]/z/[^F,,^F,]/z/[^G,,^G,]/ z/ | x4 |] %72
V:4
 x3/2 | x4 | x4 | x4 | x5/2 | x3/2 |: x4 | x4 | x4 | x4 | !>!E4- | x4 | x4 | x4 | x4 | x4 | x4 | %17
 x4 | x4 | x3 C | x2 _B,2 |1 x4 :|2 x4 || x4 | x4 | x4 | x4 | x4 | x4 | x4 | x4 | x4 | x4 | x4 | %34
 x4 | x4 | x4 | x2 =B,_B, | [A,F][EB] x ||[K:Bb] x | x4 | x4 | x4 | x4 | x4 | x4 | x4 | x4 | x4 | %49
 x4 | x4 | x4 | x3 [=EB] | x3 [DF] | x4 | D/G[Ae]/ x2 || x4 | x4 | x4 | x4 | x4 | [Ae]>[Ae]- x2 | %62
 x4 | z/ [Bd][Bd]/ [Bd] x | x4 | x4 | x4 | x4 | x4 | [Ae][Ae]/[Ae]/- [Ae]/[Ae][Bd]/- | x4 | x4 |] %72

